markets/JUP.svg

<svg width="42" height="42" viewBox="0 0 42 42" fill="none" xmlns="http://www.w3.org/2000/svg">
<g clip-path="url(#clip0_7698_85201)">
<mask id="mask0_7698_85201" style="mask-type:luminance" maskUnits="userSpaceOnUse" x="0" y="0" width="42" height="42">
<path d="M42 0H0V42H42V0Z" fill="white"/>
</mask>
<g mask="url(#mask0_7698_85201)">
<path d="M42 21C42 9.40203 32.598 0 21 0C9.40203 0 0 9.40203 0 21C0 32.598 9.40203 42 21 42C32.598 42 42 32.598 42 21Z" fill="#0F1524"/>
<path d="M7.82458 30.4219C9.19444 32.3271 10.9516 33.9215 12.9808 35.1002C15.0101 36.2789 17.2655 37.0154 19.5993 37.2612C18.3987 35.4543 16.6532 33.7921 14.4744 32.5265C12.2956 31.261 9.98811 30.5697 7.82458 30.4219Z" fill="url(#paint0_linear_7698_85201)"/>
<path d="M17.4022 27.487C13.2044 25.0481 8.66091 24.4267 5.40991 25.5247C5.72376 26.5619 6.13767 27.5661 6.64583 28.5233C9.47039 28.458 12.5543 29.2252 15.4239 30.8918C18.2936 32.5585 20.4883 34.8588 21.8315 37.3455C22.9152 37.3123 23.9933 37.1741 25.0505 36.9333C24.3933 33.5659 21.599 29.9263 17.4022 27.487Z" fill="url(#paint1_linear_7698_85201)"/>
<path d="M37.4062 17.5886C36.8725 15.4175 35.9068 13.3765 34.5667 11.5871C33.2268 9.79775 31.5398 8.29671 29.6068 7.17367C27.6739 6.05069 25.5344 5.32871 23.3162 5.05087C21.098 4.77304 18.8466 4.94506 16.6962 5.55664C20.2885 5.99628 24.2759 7.34482 28.1864 9.61656C32.0966 11.8884 35.2461 14.6837 37.4062 17.5886Z" fill="url(#paint2_linear_7698_85201)"/>
<path d="M32.1797 25.5505C30.341 22.4967 27.1912 19.5728 23.3109 17.3185C19.4306 15.0645 15.3312 13.7768 11.7709 13.6917C8.63854 13.6175 6.28764 14.5281 5.32268 16.1893C5.31717 16.1992 5.30949 16.2086 5.30345 16.2185C5.21661 16.53 5.14188 16.842 5.07373 17.1554C6.42117 16.6234 7.98236 16.3273 9.71833 16.2942C13.5789 16.2218 17.8992 17.4565 21.886 19.7727C25.8728 22.0889 29.0881 25.2317 30.9367 28.6201C31.7653 30.1467 32.2824 31.6497 32.4875 33.0857C32.7259 32.8723 32.9601 32.6521 33.1871 32.4228C33.1931 32.4124 33.1969 32.4015 33.203 32.3904C34.1679 30.7276 33.7948 28.2349 32.1797 25.5505Z" fill="url(#paint3_linear_7698_85201)"/>
<path d="M20.2597 21.5151C14.3175 18.0629 7.75136 17.5223 4.59375 19.9315C4.59996 20.6854 4.65761 21.4383 4.76632 22.1844C5.69515 21.903 6.65247 21.7256 7.62057 21.6559C11.149 21.3904 15.0391 22.3734 18.5692 24.4255C22.0995 26.4773 24.8823 29.3712 26.4001 32.5655C26.8196 33.4406 27.1395 34.36 27.3541 35.3067C28.0563 35.0314 28.7391 34.7087 29.3977 34.3412C29.9264 30.4042 26.2033 24.9678 20.2597 21.5151Z" fill="url(#paint4_linear_7698_85201)"/>
<path d="M35.2361 20.4399C33.3764 17.3895 30.199 14.457 26.2914 12.1882C22.3837 9.91913 18.2684 8.61129 14.6965 8.50629C11.9735 8.42774 9.86438 9.08773 8.77087 10.3346C13.3117 9.56521 19.3009 10.8583 25.1062 14.2306C30.9113 17.6032 35.0032 22.1664 36.5824 26.4917C37.1237 24.9251 36.6527 22.766 35.2361 20.4399Z" fill="url(#paint5_linear_7698_85201)"/>
</g>
</g>
<defs>
<linearGradient id="paint0_linear_7698_85201" x1="26.478" y1="11.5077" x2="11.4479" y2="37.3458" gradientUnits="userSpaceOnUse">
<stop offset="0.0001" stop-color="#C7F284"/>
<stop offset="1" stop-color="#00BEF0"/>
</linearGradient>
<linearGradient id="paint1_linear_7698_85201" x1="26.478" y1="11.5074" x2="11.4479" y2="37.3455" gradientUnits="userSpaceOnUse">
<stop offset="0.0001" stop-color="#C7F284"/>
<stop offset="1" stop-color="#00BEF0"/>
</linearGradient>
<linearGradient id="paint2_linear_7698_85201" x1="26.478" y1="11.5081" x2="11.4479" y2="37.3463" gradientUnits="userSpaceOnUse">
<stop offset="0.0001" stop-color="#C7F284"/>
<stop offset="1" stop-color="#00BEF0"/>
</linearGradient>
<linearGradient id="paint3_linear_7698_85201" x1="26.478" y1="11.5084" x2="11.4479" y2="37.3466" gradientUnits="userSpaceOnUse">
<stop offset="0.0001" stop-color="#C7F284"/>
<stop offset="1" stop-color="#00BEF0"/>
</linearGradient>
<linearGradient id="paint4_linear_7698_85201" x1="26.3789" y1="10.6241" x2="11.3487" y2="36.4623" gradientUnits="userSpaceOnUse">
<stop offset="0.0001" stop-color="#C7F284"/>
<stop offset="1" stop-color="#00BEF0"/>
</linearGradient>
<linearGradient id="paint5_linear_7698_85201" x1="26.4781" y1="11.5089" x2="11.4479" y2="37.347" gradientUnits="userSpaceOnUse">
<stop offset="0.0001" stop-color="#C7F284"/>
<stop offset="1" stop-color="#00BEF0"/>
</linearGradient>
<clipPath id="clip0_7698_85201">
<rect width="42" height="42" fill="white"/>
</clipPath>
</defs>
</svg>

<svg xmlns="http://www.w3.org/2000/svg" width="42" height="42" fill="none"><g clip-path="url(#a)"><mask id="b" width="42" height="42" x="0" y="0" maskUnits="userSpaceOnUse" style="mask-type:luminance"><path fill="#fff" d="M42 0H0v42h42V0Z"/></mask><g mask="url(#b)"><path fill="#0F1524" d="M42 21C42 9.402 32.598 0 21 0S0 9.402 0 21s9.402 21 21 21 21-9.402 21-21Z"/><path fill="url(#c)" d="M7.825 30.422a16.653 16.653 0 0 0 11.774 6.84c-1.2-1.808-2.946-3.47-5.125-4.736-2.178-1.265-4.486-1.956-6.65-2.104Z"/><path fill="url(#d)" d="M17.402 27.487c-4.198-2.439-8.741-3.06-11.992-1.962a16.726 16.726 0 0 0 1.236 2.998c2.824-.065 5.908.702 8.778 2.369 2.87 1.667 5.064 3.967 6.407 6.454a16.814 16.814 0 0 0 3.22-.413c-.658-3.367-3.452-7.007-7.649-9.446Z"/><path fill="url(#e)" d="M37.406 17.589a16.637 16.637 0 0 0-20.71-12.032c3.592.44 7.58 1.788 11.49 4.06 3.91 2.271 7.06 5.067 9.22 7.972Z"/><path fill="url(#f)" d="M32.18 25.55c-1.839-3.053-4.989-5.977-8.87-8.232-3.88-2.254-7.979-3.541-11.54-3.626-3.131-.075-5.482.836-6.447 2.497l-.02.03c-.086.311-.161.623-.23.936 1.348-.532 2.91-.828 4.645-.86 3.86-.073 8.181 1.161 12.168 3.478 3.987 2.316 7.202 5.459 9.05 8.847.83 1.527 1.346 3.03 1.551 4.466.239-.214.473-.434.7-.663.006-.01.01-.022.016-.033.965-1.662.592-4.155-1.023-6.84Z"/><path fill="url(#g)" d="M20.26 21.515c-5.943-3.452-12.509-3.993-15.666-1.584.006.754.064 1.507.172 2.253a13.085 13.085 0 0 1 2.855-.528c3.528-.266 7.418.717 10.948 2.77 3.53 2.051 6.313 4.945 7.831 8.14.42.875.74 1.794.954 2.74a16.715 16.715 0 0 0 2.044-.965c.528-3.937-3.195-9.373-9.138-12.826Z"/><path fill="url(#h)" d="M35.236 20.44c-1.86-3.05-5.037-5.983-8.945-8.252-3.907-2.269-8.023-3.577-11.595-3.682-2.723-.078-4.832.582-5.925 1.829 4.54-.77 10.53.523 16.335 3.896 5.805 3.372 9.897 7.935 11.476 12.26.542-1.566.07-3.725-1.346-6.051Z"/></g></g><defs><linearGradient id="c" x1="26.478" x2="11.448" y1="11.508" y2="37.346" gradientUnits="userSpaceOnUse"><stop offset="0" stop-color="#C7F284"/><stop offset="1" stop-color="#00BEF0"/></linearGradient><linearGradient id="d" x1="26.478" x2="11.448" y1="11.507" y2="37.346" gradientUnits="userSpaceOnUse"><stop offset="0" stop-color="#C7F284"/><stop offset="1" stop-color="#00BEF0"/></linearGradient><linearGradient id="e" x1="26.478" x2="11.448" y1="11.508" y2="37.346" gradientUnits="userSpaceOnUse"><stop offset="0" stop-color="#C7F284"/><stop offset="1" stop-color="#00BEF0"/></linearGradient><linearGradient id="f" x1="26.478" x2="11.448" y1="11.508" y2="37.347" gradientUnits="userSpaceOnUse"><stop offset="0" stop-color="#C7F284"/><stop offset="1" stop-color="#00BEF0"/></linearGradient><linearGradient id="g" x1="26.379" x2="11.349" y1="10.624" y2="36.462" gradientUnits="userSpaceOnUse"><stop offset="0" stop-color="#C7F284"/><stop offset="1" stop-color="#00BEF0"/></linearGradient><linearGradient id="h" x1="26.478" x2="11.448" y1="11.509" y2="37.347" gradientUnits="userSpaceOnUse"><stop offset="0" stop-color="#C7F284"/><stop offset="1" stop-color="#00BEF0"/></linearGradient><clipPath id="a"><path fill="#fff" d="M0 0h42v42H0z"/></clipPath></defs></svg>
